X: 1126
T: Roudledum
R:slip jig
N:"2nd Setting"
B:O'Neill's 1126
Z:Transcribed by Michael Hogan
M:9/8
L:1/8
K:D
Ddd dAG FGE | Ddd dcB cde | def gec d2B |1 ABc dAG FGF:|2 BAF dAF EFA||
|:BEB BAG F2F | EBB BAF ABc | BEE BAG F2F |1 DED FDF ABc:|2 DED BAF EFA||


